dist/img/icons/Combined Shape.svg

<?xml version="1.0" encoding="UTF-8"?>
<svg width="29px" height="29px" viewBox="0 0 29 29" version="1.1" xmlns="http://www.w3.org/2000/svg" xmlns:xlink="http://www.w3.org/1999/xlink">
    <!-- Generator: Sketch 53.1 (72631) - https://sketchapp.com -->
    <title>Combined Shape</title>
    <desc>Created with Sketch.</desc>
    <g id="Symbols" stroke="none" stroke-width="1" fill="none" fill-rule="evenodd">
        <g id="icon/sport/badminton" transform="translate(-20.000000, -18.000000)" fill="#FFFFFF" fill-rule="nonzero">
            <g id="icon_badminton" transform="translate(0.238095, 0.000000)">
                <path d="M23.5885885,39.3847102 L27.7330961,43.9204174 C28.2504895,44.5054588 28.3252136,45.237306 27.8815984,45.6758533 C27.434515,46.0414652 26.4738216,46.6274417 25.6613152,46.7003771 C24.6233754,46.8462478 23.1449733,46.7736241 21.8856988,45.3838002 C20.6295773,43.9207291 20.2597403,42.6770876 20.2597403,41.7993696 C20.2597403,40.5554164 20.9246902,39.8977513 20.9246902,39.8977513 C20.9246902,39.8977513 21.293266,39.6044514 21.8119206,39.1659041 C22.2577429,38.7273568 23.0711951,38.8738509 23.5885885,39.3847102 Z M41.3464397,35.9477089 L30.3244774,42.6773993 L29.4328328,41.7996813 L38.0913696,34.9231851 L38.534039,34.9967439 C39.5719788,34.9967439 40.5329874,35.3617324 41.3464397,35.9477089 Z M28.5465483,40.92134 L27.8078202,40.1907395 L24.7718777,36.9722326 L31.5065054,26.2195644 C32.0979924,27.0231002 32.4665682,27.9743769 32.4665682,28.9989006 L32.5412923,29.4374479 L25.6613152,37.9222625 L26.48536,38.7893306 L33.4307298,30.1692951 C33.4307298,30.1692951 33.504508,30.1692951 33.5792321,30.1692951 C34.6130731,30.1692951 35.6488059,30.6078424 36.3169087,31.4120016 C36.9805975,32.1438488 37.3516956,33.0954372 37.3516956,34.0448438 L28.5465483,40.92134 Z M47.7112303,34.1913379 C48.5237367,35.0693675 48.5237367,36.3862561 47.6374521,37.1913504 C47.2666692,37.4837153 46.898724,37.557274 46.3781776,37.7034564 L36.1684064,40.4827927 L42.6798077,36.5324386 L43.2709793,36.16745 L42.7523247,35.6559674 C41.6437596,34.4855729 40.1631504,33.826661 38.6078172,33.7531023 L38.534039,33.7531023 C38.4602607,32.5827078 38.0166455,31.4864954 37.2041392,30.6081541 C36.3169087,29.6565657 35.0576342,29.0721477 33.6520645,28.9992123 L33.6520645,28.9256536 C33.6520645,27.3902706 32.9849075,25.8527057 31.8025642,24.7561817 L31.2842249,24.2434522 L27.2141262,30.7540249 C28.2511201,26.8036707 29.8780245,20.4392805 29.8780245,20.3663452 C30.025581,20.0007332 30.1740833,19.5618743 30.5461273,19.2698211 C31.4333578,18.4647268 32.7629423,18.5376622 33.5798627,19.3433799 C34.0972562,19.9281096 34.2435514,20.5870214 34.0972562,21.2446865 C34.0972562,21.3905572 34.1707191,21.5367397 34.2435514,21.609675 C34.3182755,21.6832338 34.465832,21.7561691 34.5396102,21.6832338 C35.2042448,21.609675 35.947387,21.8291045 36.4647805,22.3421456 C36.8346175,22.7806929 37.0556368,23.3666694 36.9809127,23.9510874 C36.9809127,24.0975815 37.0559521,24.3160759 37.2044545,24.3896347 C37.2772868,24.5361288 37.4257891,24.6099992 37.6471238,24.6099992 C38.1645173,24.6099992 38.7553736,24.829117 39.2024571,25.2676643 C39.7198505,25.779147 39.9421311,26.5845529 39.7198505,27.242218 C39.7198505,27.3151534 39.7198505,27.4625826 39.7936287,27.5361413 C39.8683528,27.6084533 39.9421311,27.6084533 40.0896875,27.6084533 C40.7546374,27.4628942 41.4930502,27.682012 42.088636,28.2670534 C42.5313053,28.7049773 42.7523247,29.4374479 42.6060294,30.021866 C42.6060294,30.1692951 42.6060294,30.3154776 42.7523247,30.3890363 C42.8270488,30.5349071 42.9758664,30.5349071 43.0483835,30.5349071 C43.7142793,30.4613483 44.3826974,30.6814012 44.8988296,31.1922604 C45.4162231,31.7053015 45.5647254,32.5091491 45.3433907,33.2419313 C45.3433907,33.3142433 45.3433907,33.3878021 45.4162231,33.4607374 C45.4909472,33.6069199 45.6394495,33.6069199 45.7122819,33.6069199 C46.3034535,33.5339845 47.1938369,33.5339845 47.7112303,34.1913379 Z" id="Combined-Shape"></path>
            </g>
        </g>
    </g>
</svg>

<svg width="29" height="29" viewBox="0 0 29 29" xmlns="http://www.w3.org/2000/svg" xmlns:xlink="http://www.w3.org/1999/xlink"><g id="Symbols" stroke="none" stroke-width="1" fill="none" fill-rule="evenodd"><g id="icon/sport/badminton" transform="translate(-20 -18)" fill="#FFF" fill-rule="nonzero"><g id="icon_badminton" transform="translate(.238)"><path d="M23.589 39.385l4.144 4.535c.517.585.592 1.317.149 1.756-.447.365-1.408.951-2.22 1.024-1.039.146-2.517.074-3.776-1.316-1.256-1.463-1.626-2.707-1.626-3.585 0-1.244.665-1.901.665-1.901s.368-.294.887-.732c.446-.439 1.26-.292 1.777.219zm17.757-3.437l-11.022 6.73-.891-.878 8.658-6.877.443.074c1.038 0 1.999.365 2.812.95zm-12.8 4.973l-.738-.73-3.036-3.219 6.735-10.752c.591.803.96 1.754.96 2.779l.074.438-6.88 8.485.824.867 6.946-8.62h.148c1.034 0 2.07.439 2.738 1.243a3.956 3.956 0 0 1 1.035 2.633l-8.805 6.876zm19.165-6.73c.813.878.813 2.195-.074 3-.37.293-.738.366-1.259.512l-10.21 2.78 6.512-3.95.591-.366-.519-.511a6.08 6.08 0 0 0-4.144-1.903h-.074a5.043 5.043 0 0 0-1.33-3.145c-.887-.951-2.146-1.536-3.552-1.609v-.073c0-1.536-.667-3.073-1.85-4.17l-.518-.513-4.07 6.511c1.037-3.95 2.664-10.315 2.664-10.388.148-.365.296-.804.668-1.096.887-.805 2.217-.732 3.034.073.517.585.664 1.244.517 1.902 0 .146.074.292.147.365.074.073.222.146.296.073a2.402 2.402 0 0 1 1.925.66c.37.438.59 1.024.516 1.608 0 .147.075.365.223.439.073.146.222.22.443.22.518 0 1.108.22 1.555.658.518.511.74 1.317.518 1.974 0 .073 0 .22.074.294.074.072.148.072.296.072.665-.145 1.403.074 1.999.66.442.437.663 1.17.517 1.754 0 .147 0 .293.146.367.075.146.224.146.296.146a2.251 2.251 0 0 1 1.85.657c.518.513.667 1.317.445 2.05 0 .072 0 .146.073.219.075.146.223.146.296.146.591-.073 1.482-.073 2 .584z" id="Combined-Shape"/></g></g></g></svg>
